X:1
T:The Dom Pedro
M:3/4
L:1/4
K:C
 E/2D/2| E G G| G F B,| D C C| C2 E/2D/2| D/2 D3/2 E| F E D| C/2 G3/2 A|\
 G2E/2-F/2| G E G| c B A| G/2 F3/2 E| D2D/2-E/2| F A A| A G3/2 E/2|\
 D C C| C2 C/2C/2| C/2 G3/2 G/2G/2| G F G| C3-| C2 G| A A A| A B c|\
 B G G| G2 A/2B/2| c c c| c c c| B B B| B2 G/2G/2| A A A| A d3/2 c/2|\
 B G G| G2||
